svg/u1f690.svg

<svg viewBox="0 0 128 128" xmlns="http://www.w3.org/2000/svg">
  <path d="M18.46,70.63l12.63-24.24c0,0-3.69-2.3-3.59-8.02c0.09-5.71,3.96-8.2,5.62-8.3 c1.84-0.1,73.28,0.28,74.29,0.37c1.01,0.09,5.44,1.01,7.65,6.91s4.32,20.74,5.53,27.74c1.2,6.91,3.04,19.26,3.5,22.58 s0.65,6.54,0.65,6.54l-79.27,0.92L4.73,96.25l-1.2-10.97c0,0,0.37-6.19,3.59-9.95C11.38,70.37,18.46,70.63,18.46,70.63z" fill="#E0E0E0"/>
  <path d="M3.33,91.67c0.01-0.04,121,0,121,0v9.28c0,0-34.63-1.47-42.74-0.15c-8.11,1.33-79.19-0.34-79.19-0.82 s0.26-6.61,0.26-6.61S3.31,91.76,3.33,91.67z" fill="#9B9C94"/>
  <polygon points="25.28,99.09 99.28,99.02 93.37,106.91 30.91,106.91 " fill="#B0B0B0"/>
  <path d="M34.38,103.77l55.44,0.03c0,0,2.73-4.87,8.89-4.87c5.91,0,24.27,0.12,24.27,0.12l2.14,4.97 c0,0-0.04,2.56-0.88,4.48s-2.42,3.4-3.37,3.61c-0.94,0.22-110.32,0-113.68-0.06c-2.62-0.05-4.7-1.81-5.06-4.15s0.29-9.35,0.29-9.35 s20.36,0.27,23.6,0.43C32.04,99.28,34.38,103.77,34.38,103.77z" fill="#5E6367"/>
  <path d="M89.69,112.41c0.06,5.02,3.7,11.27,11.6,11.32s12-6.09,11.75-12.39c-0.25-6.4-4.74-11.2-12.39-10.9 C94.05,100.71,89.61,106.02,89.69,112.41z" fill="#4E433D"/>
  <path d="M95.49,112.19c0.04,2.44,1.95,5.94,6.1,5.97c4.15,0.03,6.17-3.03,6.04-6.35 c-0.13-3.37-2.79-5.89-6.27-5.84C97.88,106.03,95.44,108.82,95.49,112.19z" fill="#C8C8C8"/>
  <path d="M11.64,112.61c0.06,5.02,3.7,11.27,11.6,11.32s12-6.09,11.75-12.39c-0.25-6.4-4.74-11.2-12.39-10.9 C16,100.9,11.56,106.21,11.64,112.61z" fill="#4E433D"/>
  <path d="M17.44,112.38c0.04,2.44,1.95,5.94,6.1,5.97c4.15,0.03,6.17-3.03,6.04-6.35 c-0.13-3.37-2.79-5.89-6.27-5.84C19.83,106.23,17.39,109.01,17.44,112.38z" fill="#C8C8C8"/>
  <path d="M121.26,104.59c0.43,0.56,3.62,0.38,3.93,0.11c0.31-0.27-0.19-10.74-0.5-12.27 c-0.31-1.53-1.87-2.52-3.2-2.36c-0.96,0.12-0.76,1.66-0.67,7.37C120.86,100.59,120.81,104.01,121.26,104.59z" fill="#D90512"/>
  <path d="M2.62,95.09c0,0,5.43,0.43,7.69-3.21c1.85-2.97,2.06-6.22,0.49-6.48s-7.11-0.35-7.31-0.13 c-0.19,0.22-0.58,2.59-0.72,4.94C2.65,92.22,2.62,95.09,2.62,95.09z" fill="#FFEACA"/>
  <path d="M12.46,81.66c-0.88-0.04-1.05-1.25-0.19-2.34c1.07-1.36,3.12-3.21,6.53-3.41 c3.31-0.19,4.97,2.05,6.53,2.24c1.56,0.19,4.48,0.39,6.72,0.39c2.24,0,81.72-0.49,84.44-0.39c1.85,0.07,3.6,3.12,3.31,3.41 S14.41,81.76,12.46,81.66z" fill="#FFFFFF"/>
  <path d="M41,34.01c-0.11,1.17-3.58,1.43-5.12,2.51s-1.74,4.45-3.48,4.45c-2.05,0-2.61-3.12-1.84-5.02 c0.73-1.81,2.32-3.02,4.35-3.38C36.09,32.38,41.21,31.92,41,34.01z" fill="#FFFFFF"/>
  <path d="M32.04,52.27c0.77-1.79,1.69-2.23,3.11-2.23s8.25,0,9.73,0s2.97,0.68,3.04,2.23 c0.07,1.55,0,17.44,0,18.45c0,1.01-0.95,3.04-2.77,3.24c-1.82,0.2-19.4,0-20.28,0c-0.88,0-2.5-0.95-1.49-3.31 C24.4,68.29,31.63,53.22,32.04,52.27z" fill="#5F6367"/>
  <path d="M53.46,52.61c-0.07-1.69,0.95-2.5,2.23-2.5c1.28,0,54.74,0,55.89,0s2.3,1.28,2.7,3.31 c0.41,2.03,2.87,16.7,3.07,18.19s-0.55,2.6-1.84,2.66c-1.28,0.07-58.46-0.14-59.74-0.14c-1.28,0-2.25-1.11-2.32-2.67 S53.53,54.3,53.46,52.61z" fill="#5F6367"/>
  <path d="M56.17,55.38c0-1.62,1.01-2.1,2.77-2.03c1.28,0.05,49.61,0.27,50.69,0.34 c1.08,0.07,2.16,0.61,2.43,1.96c0.27,1.35,1.82,12.5,1.96,13.58c0.14,1.08-0.54,2.16-1.76,2.16s-52.65-0.02-53.66-0.07 c-1.55-0.07-2.37-1.55-2.37-2.7S56.17,56.33,56.17,55.38z" fill="#AFE3FB"/>
  <path d="M33.78,55.02c0.53-1.15,1.11-1.66,2.62-1.71s6.54-0.05,7.45-0.05s1.71,0.2,1.66,1.66 c-0.05,1.46-0.3,13.34-0.25,14.15c0.05,0.81-0.7,2.11-2.01,2.22c-1.31,0.1-11.73,0.1-11.73,0.1l-2.52-1.81c0,0-1.64,0.28-1.56-0.3 C27.59,68.11,33.17,56.33,33.78,55.02z" fill="#AFE3FB"/>
  <path d="M26.93,71.78c-0.06,3.79,4.58,5.64,5.39,5.64c0.81,0,2.42-1.01,2.42-5.74c0-4.68-1.76-5.82-2.62-5.89 C30.96,65.69,26.98,68.56,26.93,71.78z" fill="#5F6367"/>
</svg>

<svg viewBox="0 0 128 128" xmlns="http://www.w3.org/2000/svg">
  <defs/>
  <path d="M18.46,70.63 L31.09,46.39 C31.09,46.39 27.4,44.09 27.5,38.37 C27.59,32.66 31.46,30.17 33.12,30.07 C34.96,29.97 106.4,30.35 107.41,30.44 C108.42,30.53 112.85,31.45 115.06,37.35 C117.27,43.25 119.38,58.09 120.59,65.09 C121.79,72 123.63,84.35 124.09,87.67 C124.55,90.99 124.74,94.21 124.74,94.21 L45.47,95.13 L4.73,96.25 L3.53,85.28 C3.53,85.28 3.9,79.09 7.12,75.33 C11.38,70.37 18.46,70.63 18.46,70.63 Z" fill="#E0E0E0"/>
  <path d="M3.33,91.67 C3.34,91.63 124.33,91.67 124.33,91.67 L124.33,100.95 C124.33,100.95 89.7,99.48 81.59,100.8 C73.48,102.13 2.4,100.46 2.4,99.98 C2.4,99.5 2.66,93.37 2.66,93.37 C2.66,93.37 3.31,91.76 3.33,91.67 Z" fill="#9B9C94"/>
  <path d="M25.28,99.09 L99.28,99.02 L93.37,106.91 L30.91,106.91 Z" fill="#B0B0B0"/>
  <path d="M34.38,103.77 L89.82,103.8 C89.82,103.8 92.55,98.93 98.71,98.93 C104.62,98.93 122.98,99.05 122.98,99.05 L125.12,104.02 C125.12,104.02 125.08,106.58 124.24,108.5 C123.4,110.42 121.82,111.9 120.87,112.11 C119.93,112.33 10.55,112.11 7.19,112.05 C4.57,112 2.49,110.24 2.13,107.9 C1.77,105.56 2.42,98.55 2.42,98.55 C2.42,98.55 22.78,98.82 26.02,98.98 C32.04,99.28 34.38,103.77 34.38,103.77 Z" fill="#5E6367"/>
  <path d="M89.69,112.41 C89.75,117.43 93.39,123.68 101.29,123.73 C109.19,123.78 113.29,117.64 113.04,111.34 C112.79,104.94 108.3,100.14 100.65,100.44 C94.05,100.71 89.61,106.02 89.69,112.41 Z" fill="#4E433D"/>
  <path d="M95.49,112.19 C95.53,114.63 97.44,118.13 101.59,118.16 C105.74,118.19 107.76,115.13 107.63,111.81 C107.5,108.44 104.84,105.92 101.36,105.97 C97.88,106.03 95.44,108.82 95.49,112.19 Z" fill="#C8C8C8"/>
  <path d="M11.64,112.61 C11.7,117.63 15.34,123.88 23.24,123.93 C31.14,123.98 35.24,117.84 34.99,111.54 C34.74,105.14 30.25,100.34 22.6,100.64 C16,100.9 11.56,106.21 11.64,112.61 Z" fill="#4E433D"/>
  <path d="M17.44,112.38 C17.48,114.82 19.39,118.32 23.54,118.35 C27.69,118.38 29.71,115.32 29.58,112 C29.45,108.63 26.79,106.11 23.31,106.16 C19.83,106.23 17.39,109.01 17.44,112.38 Z" fill="#C8C8C8"/>
  <path d="M121.26,104.59 C121.69,105.15 124.88,104.97 125.19,104.7 C125.5,104.43 125,93.96 124.69,92.43 C124.38,90.9 122.82,89.91 121.49,90.07 C120.53,90.19 120.73,91.73 120.82,97.44 C120.86,100.59 120.81,104.01 121.26,104.59 Z" fill="#D90512"/>
  <path d="M2.62,95.09 C2.62,95.09 8.05,95.52 10.31,91.88 C12.16,88.91 12.37,85.66 10.8,85.4 C9.23,85.14 3.69,85.05 3.49,85.27 C3.3,85.49 2.91,87.86 2.77,90.21 C2.65,92.22 2.62,95.09 2.62,95.09 Z" fill="#FFEACA"/>
  <path d="M12.46,81.66 C11.58,81.62 11.41,80.41 12.27,79.32 C13.34,77.96 15.39,76.11 18.8,75.91 C22.11,75.72 23.77,77.96 25.33,78.15 C26.89,78.34 29.81,78.54 32.05,78.54 C34.29,78.54 113.77,78.05 116.49,78.15 C118.34,78.22 120.09,81.27 119.8,81.56 C119.51,81.85 14.41,81.76 12.46,81.66 Z" fill="#FFFFFF"/>
  <path d="M41,34.01 C40.89,35.18 37.42,35.44 35.88,36.52 C34.34,37.6 34.14,40.97 32.4,40.97 C30.35,40.97 29.79,37.85 30.56,35.95 C31.29,34.14 32.88,32.93 34.91,32.57 C36.09,32.38 41.21,31.92 41,34.01 Z" fill="#FFFFFF"/>
  <path d="M32.04,52.27 C32.81,50.48 33.73,50.04 35.15,50.04 C36.57,50.04 43.4,50.04 44.88,50.04 C46.36,50.04 47.85,50.72 47.92,52.27 C47.99,53.82 47.92,69.71 47.92,70.72 C47.92,71.73 46.97,73.76 45.15,73.96 C43.33,74.16 25.75,73.96 24.87,73.96 C23.99,73.96 22.37,73.01 23.38,70.65 C24.4,68.29 31.63,53.22 32.04,52.27 Z" fill="#5F6367"/>
  <path d="M53.46,52.61 C53.39,50.92 54.41,50.11 55.69,50.11 C56.97,50.11 110.43,50.11 111.58,50.11 C112.73,50.11 113.88,51.39 114.28,53.42 C114.69,55.45 117.15,70.12 117.35,71.61 C117.55,73.1 116.8,74.21 115.51,74.27 C114.23,74.34 57.05,74.13 55.77,74.13 C54.49,74.13 53.52,73.02 53.45,71.46 C53.38,69.9 53.53,54.3 53.46,52.61 Z" fill="#5F6367"/>
  <path d="M56.17,55.38 C56.17,53.76 57.18,53.28 58.94,53.35 C60.22,53.4 108.55,53.62 109.63,53.69 C110.71,53.76 111.79,54.3 112.06,55.65 C112.33,57 113.88,68.15 114.02,69.23 C114.16,70.31 113.48,71.39 112.26,71.39 C111.04,71.39 59.61,71.37 58.6,71.32 C57.05,71.25 56.23,69.77 56.23,68.62 C56.23,67.47 56.17,56.33 56.17,55.38 Z" fill="#AFE3FB"/>
  <path d="M33.78,55.02 C34.31,53.87 34.89,53.36 36.4,53.31 C37.91,53.26 42.94,53.26 43.85,53.26 C44.76,53.26 45.56,53.46 45.51,54.92 C45.46,56.38 45.21,68.26 45.26,69.07 C45.31,69.88 44.56,71.18 43.25,71.29 C41.94,71.39 31.52,71.39 31.52,71.39 L29,69.58 C29,69.58 27.36,69.86 27.44,69.28 C27.59,68.11 33.17,56.33 33.78,55.02 Z" fill="#AFE3FB"/>
  <path d="M26.93,71.78 C26.87,75.57 31.51,77.42 32.32,77.42 C33.13,77.42 34.74,76.41 34.74,71.68 C34.74,67 32.98,65.86 32.12,65.79 C30.96,65.69 26.98,68.56 26.93,71.78 Z" fill="#5F6367"/>
</svg>
